X:1
T:A minor Ananias Davisson, 1820
T:Caleb J. Taylor, 1804             11 11. 11 11.
T:Imandra
T:Transcribed from The Kentucky Harmony, 1825
%%score [ 1 2 3 4 ]
L:1/8
Q:1/4=110
M:4/4
K:C
V:1 treble nm="Tr." snm="Tr."
V:2 treble nm="C." snm="C."
V:3 treble-8 nm="T." snm="T."
V:4 bass nm="B." snm="B."
V:1
!mf!"^I          love  thee,  my  Savior,   I     love    thee,   my  Lord,\nI          love  thy  dear   people,  thy ways, and thy word;""^1. {" (c2 B2) | %1
 A4 AG E2 | G4 G2 A2 | (B2 e2) ed B2 |"^}" A8 :| %5
 z4"^With     ten – der   e  –  mo  – tion   I  love  sinners   too,   Since" (e2 d2) | c4 cB GF | %7
 E4 E2 G2 | c4 AG A2 | d4 (c2 d2) | %10
"^Je  – sus     has     died    to     re – deem   them   from   woe." e4 ed cA | G4 GF ED | %12
 E2 A2 A2 G2 | A8 |] %14
V:2
!mf!"^O          Je – sus,   my    Savior,   I     know   thou  art  mine,\nFor     thee  all   the  pleasures  of  sin      I          re – sign;""^2. {" (E2 D2) | %1
 E4 AG E2 | G4 G2 F2 | E4 EF G2 |"^}" A8 :| %5
 z4"^Of         ob – jects   most  pleasing,  I  love  thee the best,  With–" (c2 B2) | A4 EF G2 | %7
 E4 G2 B2 | c4 cB A2 | B4 (A2 G2) | %10
"^–out   thee   I'm    wretched,   but      with   thee   I'm   blest." E4 ED C2 | E4 G2 G2 | %12
 E4 EF G2 | A8 |] %14
V:3
!f!"^Thy     Spi–rit  first  taught  me  to  know  I   was   blind,\nThen   taught  me  the  way of sal – va – tion  to    find;""^3. {" (E2 G2) | %1
 A4 AG E2 | c4 d2 d2 | e4 ed B2 |"^}" A8 :| %5
 z4"^And     when   I     was   sinking  in  gloomy  des – pair,    Thy" (c2 d2) | e4 c2 g2 | %7
 e4 G2 G2 | A4 AG E2 | G4 (c2 B2) | %10
"^mer – cy     re – lieved  me,    and      bid        me     not    fear." A4 AG E2 | c4 d2 d2 | %12
 e4 ed B2 | A8 |] %14
V:4
"^___________________________________________________________\nEdited by B. C. Johnston, 2017\n   1. Measure 7, Treble: last two notes changed from A-G to G-F.""^In         vain   I      attempt   to  describe   what   I      feel,\nThe     language   of    mortals  or  an –gels would fail;""^4. {" (E,2 G,2) | %1
 A,4 A,G, E,2 | C,4 G,2 A,2 | E,4 E,2 E,2 |"^}" A,,8 :| %5
 z4"^My        Je – sus      is     precious,  my  soul's  in a  flame,   I'm" (C2 B,2) | %6
 A,4 A,B, C2 | A,4 G,2 E,2 | C,4 C,2 C,2 | G,4 (E,2 G,2) | %10
"^raised    to     a     rap–ture   while   prai – sing   his   name.""^5. I find him in singing, I find him in prayer,\nIn sweet meditation he always is near;\nMy constant companion, O may we ne'er part!\nAll glory to Jesus, he dwells in my heart.\n6. My Jesus is precious--I cannot forbear,\nThough sinners despise me, his love to declare;\nHis love overwhelms me; had I wings I'd fly\nTo praise him in mansions prepared in the sky.\n7. Then millions of ages my soul would employ\nIn praising my Jesus, my love and my joy\nWithout interruption, when all the glad throng\nWith pleasures unceasing unite in the song." A,4 A,G, E,2 | %11
 C,4 G,2 G,2 | E,4 E,2 E,2 | A,,8 |] %14

